X:255
T: Lawson's Hornpipe
S: "First Collection of Traditional Irish Music" (M.Mulvihill)
Z: B.Black
L: 1/8
M: C|
R: hornpipe
K: G
ef|(3gfg dB GBdg|ecAF G2 AB|(3cBA dB cdfg|afdc d2 ef|
(3gfg dB GBdg|ecAF G2 AB|(3cBA dB cAGF|DGGF G2 :|
zA|BGDG BGAB|cAEA cAEA|BG (3GFG DGBG|(3FED AD BDAD|
BGDG BGAB|(3cBA EA cAEA|Bgfe (3ded (3cBA|GBAF G2 :|
